logo.svg

<?xml version="1.0" encoding="UTF-8"?>
<svg width="125px" height="13px" viewBox="0 0 125 13" version="1.1" xmlns="http://www.w3.org/2000/svg" xmlns:xlink="http://www.w3.org/1999/xlink">
    <title>Group Copy</title>
    <defs>
        <path d="M5.63909774,12.7918719 L9.15197831,7.15640394 L9.15197831,12.6958128 L11.2936029,12.6958128 L11.2936029,0 L5.63909774,8.6453202 L0,0 L0,12.6958128 L2.15703192,12.6958128 L2.15703192,7.15640394 L5.63909774,12.7918719 Z M17.1175891,12.9039409 C18.0266239,12.9039409 18.858622,12.6157635 19.5519537,12.1194581 L19.5519537,12.6958128 L21.477875,12.6958128 L21.477875,4.21059113 L19.5519537,4.21059113 L19.5519537,4.78694581 C18.858622,4.29064039 18.0266239,4.00246305 17.1175891,4.00246305 C14.7448539,4.00246305 12.8343399,5.98768473 12.8343399,8.45320197 C12.8343399,10.9187192 14.7448539,12.9039409 17.1175891,12.9039409 Z M17.1175891,10.9347291 C15.8079625,10.9347291 14.7294466,9.83004926 14.7294466,8.46921182 C14.7294466,7.10837438 15.7771478,6.01970443 17.0867743,6.01970443 C18.3964008,6.01970443 19.4749168,7.12438424 19.4749168,8.48522167 C19.4749168,9.84605911 18.4272156,10.9347291 17.1175891,10.9347291 Z M25.2834956,12.7118227 L25.2834956,8.59729064 C25.422162,7.17241379 26.4852706,6.11576355 27.4559349,6.11576355 C28.041415,6.11576355 28.4265993,6.30788177 28.6731172,6.5320197 L29.5821521,4.658867 C29.0428941,4.24261084 28.3495624,4.01847291 27.4559349,4.01847291 C26.6547516,4.01847291 25.9151978,4.43472906 25.2834956,5.0591133 L25.2834956,4.21059113 L23.3267595,4.21059113 L23.3267595,12.7118227 L25.2834956,12.7118227 Z M34.7898435,13 C35.8683594,13 36.808209,12.679803 37.2704302,12.0394089 L36.4692469,10.5344828 C36.0378405,10.9667488 35.5139899,11.1748768 34.7898435,11.1748768 C34.0502897,11.1748768 33.4494022,10.4064039 33.4494022,9.63793103 L33.4494022,6.1637931 L35.8529521,6.1637931 L35.8529521,4.21059113 L33.4494022,4.21059113 L33.4494022,0.608374384 L31.5388882,2.01724138 L31.5388882,4.21059113 L30.5065944,4.21059113 L30.5065944,6.1637931 L31.5542956,6.1637931 L31.5542956,9.75 C31.5542956,12.0073892 33.1412548,13 34.7898435,13 Z M42.1699741,12.9039409 C43.0481943,12.9039409 44.0034513,12.7598522 44.866264,12.1514778 L43.9726365,10.5184729 C43.3101196,10.83867 42.6167879,10.9347291 42.1699741,10.9347291 C41.1993097,10.9347291 40.2902749,10.3423645 39.8896832,9.47783251 L46.2067053,9.47783251 C46.2067053,9.47783251 46.2991495,8.82142857 46.2991495,8.45320197 C46.2991495,5.98768473 44.3886355,4.00246305 42.0159004,4.00246305 C39.6431653,4.00246305 37.7326513,5.98768473 37.7326513,8.45320197 C37.7326513,10.9187192 39.67398,12.9199507 42.1699741,12.9039409 Z M44.2345618,7.52463054 L39.8434611,7.52463054 C40.213238,6.64408867 41.045236,6.01970443 42.0313078,6.01970443 C43.079009,6.01970443 43.9264144,6.56403941 44.2345618,7.52463054 Z M50.181807,12.9839901 C51.4914335,12.9839901 53.2940959,12.3275862 53.2940959,10.5024631 C53.2940959,9.49384236 52.4775052,8.74137931 51.6300998,8.11699507 C50.7056576,7.44458128 49.5655121,6.82019704 49.5655121,6.30788177 C49.5655121,5.74753695 50.3512881,5.55541872 50.7518797,5.55541872 C51.5992851,5.55541872 52.0615062,5.84359606 52.5545421,6.1637931 L53.1554296,4.77093596 C52.7856527,4.30665025 51.5684704,3.9544335 50.8443239,3.9544335 C49.6271416,3.9544335 47.7474424,4.56280788 47.7474424,6.30788177 C47.7474424,7.52463054 48.9492173,8.26108374 49.9661038,8.96551724 C50.7056576,9.47783251 51.5068409,9.95812808 51.5068409,10.5825123 C51.5068409,11.0948276 50.7518797,11.4630542 50.2126217,11.4630542 C49.4268458,11.4630542 48.6718846,11.0788177 48.271293,10.83867 L47.6858129,12.2155172 C48.2404782,12.7118227 49.4576605,12.9839901 50.181807,12.9839901 Z M63.0007396,12.7118227 C66.2362874,12.7118227 68.8093184,9.97413793 68.8093184,6.61206897 C68.8093184,3.25 66.2208801,0.528325123 62.9853322,0.528325123 L59.611118,0.528325123 L59.611118,12.7118227 L63.0007396,12.7118227 Z M63.2626649,10.5344828 L61.7527425,10.5344828 L61.7527425,2.76970443 L63.4167386,2.76970443 C65.0036978,2.76970443 66.7909528,4.49876847 66.7909528,6.54802956 C66.7909528,8.59729064 65.0036978,10.5344828 63.2626649,10.5344828 Z M74.4792309,12.9039409 C75.357451,12.9039409 76.312708,12.7598522 77.1755208,12.1514778 L76.2818933,10.5184729 C75.6193763,10.83867 74.9260446,10.9347291 74.4792309,10.9347291 C73.5085665,10.9347291 72.5995316,10.3423645 72.19894,9.47783251 L78.515962,9.47783251 C78.515962,9.47783251 78.6084063,8.82142857 78.6084063,8.45320197 C78.6084063,5.98768473 76.6978923,4.00246305 74.3251572,4.00246305 C71.952422,4.00246305 70.041908,5.98768473 70.041908,8.45320197 C70.041908,10.9187192 71.9832368,12.9199507 74.4792309,12.9039409 Z M76.5438186,7.52463054 L72.1527179,7.52463054 C72.5224948,6.64408867 73.3544928,6.01970443 74.3405645,6.01970443 C75.3882657,6.01970443 76.2356711,6.56403941 76.5438186,7.52463054 Z M82.0904721,12.7118227 L82.0904721,0.528325123 L80.1491434,0.528325123 L80.1491434,12.7118227 L82.0904721,12.7118227 Z M88.068532,13 C89.1470479,13 90.0868976,12.679803 90.5491187,12.0394089 L89.7479354,10.5344828 C89.316529,10.9667488 88.7926784,11.1748768 88.068532,11.1748768 C87.3289782,11.1748768 86.7280907,10.4064039 86.7280907,9.63793103 L86.7280907,6.1637931 L89.1316406,6.1637931 L89.1316406,4.21059113 L86.7280907,4.21059113 L86.7280907,0.608374384 L84.8175767,2.01724138 L84.8175767,4.21059113 L83.7852829,4.21059113 L83.7852829,6.1637931 L84.8329841,6.1637931 L84.8329841,9.75 C84.8329841,12.0073892 86.4199433,13 88.068532,13 Z M95.2945889,12.9039409 C96.2036238,12.9039409 97.0356218,12.6157635 97.7289535,12.1194581 L97.7289535,12.6958128 L99.6548749,12.6958128 L99.6548749,4.21059113 L97.7289535,4.21059113 L97.7289535,4.78694581 C97.0356218,4.29064039 96.2036238,4.00246305 95.2945889,4.00246305 C92.9218538,4.00246305 91.0113398,5.98768473 91.0113398,8.45320197 C91.0113398,10.9187192 92.9218538,12.9039409 95.2945889,12.9039409 Z M95.2945889,10.9347291 C93.9849624,10.9347291 92.9064464,9.83004926 92.9064464,8.46921182 C92.9064464,7.10837438 93.9541477,6.01970443 95.2637742,6.01970443 C96.5734007,6.01970443 97.6519167,7.12438424 97.6519167,8.48522167 C97.6519167,9.84605911 96.6042155,10.9347291 95.2945889,10.9347291 Z M111.857513,12.8719212 C113.10551,12.8719212 114.261062,12.4716749 115.216319,11.7992611 L114.184026,10.1022167 C113.475287,10.614532 112.52003,10.6625616 111.857513,10.6625616 C109.715888,10.6625616 107.990263,8.86945813 107.990263,6.64408867 C107.990263,4.41871921 109.746703,2.60960591 111.888327,2.60960591 C112.504622,2.60960591 113.536916,2.8817734 114.045359,3.15394089 L114.985209,1.23275862 C114.076174,0.656403941 113.013065,0.320197044 111.857513,0.320197044 C108.514113,0.320197044 105.817823,3.12192118 105.817823,6.59605911 C105.817823,10.070197 108.514113,12.8719212 111.857513,12.8719212 Z M120.716751,12.9039409 C123.089486,12.9039409 125,10.9187192 125,8.45320197 C125,5.98768473 123.089486,4.00246305 120.716751,4.00246305 C118.344016,4.00246305 116.448909,5.98768473 116.448909,8.45320197 C116.448909,10.9187192 118.344016,12.9039409 120.716751,12.9039409 Z M120.716751,10.9347291 C119.407124,10.9347291 118.359423,9.84605911 118.359423,8.48522167 C118.359423,7.12438424 119.422532,6.01970443 120.732158,6.01970443 C122.041785,6.01970443 123.104893,7.10837438 123.104893,8.46921182 C123.104893,9.83004926 122.026377,10.9347291 120.716751,10.9347291 Z" id="path-1"></path>
        <linearGradient x1="2.28983499e-14%" y1="44.0014668%" x2="100%" y2="55.9985332%" id="linearGradient-3">
            <stop stop-color="#FFBE0B" offset="0%"></stop>
            <stop stop-color="#FB5607" offset="25.1338505%"></stop>
            <stop stop-color="#FF006E" offset="49.3280157%"></stop>
            <stop stop-color="#8338EC" offset="73.590472%"></stop>
            <stop stop-color="#3A86FF" offset="100%"></stop>
        </linearGradient>
    </defs>
    <g id="Page-1" stroke="none" stroke-width="1" fill="none" fill-rule="evenodd">
        <g id="Option-Copy-37" transform="translate(-13.000000, -19.000000)">
            <g id="Shape-+-Rectangle-Mask" transform="translate(13.000000, 19.000000)">
                <mask id="mask-2" fill="white">
                    <use xlink:href="#path-1"></use>
                </mask>
                <use id="Martes-Delta-Co" fill="#3A86FF" fill-rule="nonzero" xlink:href="#path-1"></use>
                <rect id="Rectangle" fill="url(#linearGradient-3)" mask="url(#mask-2)" x="-20.1935606" y="-22.7385644" width="165.078974" height="57.1780436"></rect>
            </g>
        </g>
    </g>
</svg>

<svg width="125" height="13" xmlns="http://www.w3.org/2000/svg" xmlns:xlink="http://www.w3.org/1999/xlink"><defs><linearGradient x1="0%" y1="44.001%" x2="100%" y2="55.999%" id="b"><stop stop-color="#FFBE0B" offset="0%"/><stop stop-color="#FB5607" offset="25.134%"/><stop stop-color="#FF006E" offset="49.328%"/><stop stop-color="#8338EC" offset="73.59%"/><stop stop-color="#3A86FF" offset="100%"/></linearGradient><path d="m5.64 12.792 3.512-5.636v5.54h2.142V0L5.639 8.645 0 0v12.696h2.157v-5.54l3.482 5.636zm11.478.112c.909 0 1.74-.288 2.434-.785v.577h1.926V4.21h-1.926v.576a4.149 4.149 0 0 0-2.434-.785c-2.373 0-4.284 1.986-4.284 4.451 0 2.466 1.91 4.45 4.284 4.45zm0-1.97c-1.31 0-2.389-1.104-2.389-2.465 0-1.36 1.048-2.45 2.358-2.45s2.388 1.105 2.388 2.466c0 1.361-1.048 2.45-2.357 2.45zm8.165 1.778V8.597c.14-1.425 1.202-2.481 2.173-2.481.585 0 .97.192 1.217.416l.91-1.873c-.54-.416-1.233-.64-2.127-.64-.801 0-1.54.416-2.173 1.04v-.848h-1.956v8.5h1.956zM34.79 13c1.078 0 2.018-.32 2.48-.96l-.8-1.506c-.432.433-.956.64-1.68.64-.74 0-1.34-.768-1.34-1.536V6.164h2.403V4.21h-2.404V.608l-1.91 1.41V4.21h-1.032v1.953h1.047V9.75c0 2.257 1.587 3.25 3.236 3.25zm7.38-.096c.878 0 1.833-.144 2.696-.753l-.893-1.633a4.325 4.325 0 0 1-1.803.417c-.97 0-1.88-.593-2.28-1.457h6.317s.092-.657.092-1.025c0-2.465-1.91-4.45-4.283-4.45s-4.283 1.985-4.283 4.45c0 2.466 1.941 4.467 4.437 4.45zm2.065-5.38h-4.392c.37-.88 1.202-1.504 2.188-1.504 1.048 0 1.895.544 2.204 1.505zm5.947 5.46c1.31 0 3.112-.656 3.112-2.482 0-1.008-.816-1.76-1.664-2.385-.924-.672-2.064-1.297-2.064-1.81 0-.56.785-.752 1.186-.752.847 0 1.31.289 1.803.609l.6-1.393c-.37-.464-1.587-.817-2.31-.817-1.218 0-3.098.609-3.098 2.354 0 1.217 1.202 1.953 2.22 2.658.739.512 1.54.992 1.54 1.617 0 .512-.755.88-1.294.88-.786 0-1.541-.384-1.942-.624l-.585 1.377c.554.496 1.772.768 2.496.768zM63 12.712c3.235 0 5.808-2.738 5.808-6.1 0-3.362-2.588-6.084-5.824-6.084h-3.374v12.184h3.39zm.262-2.178h-1.51V2.77h1.664c1.587 0 3.374 1.729 3.374 3.778 0 2.05-1.787 3.986-3.528 3.986zm11.216 2.37c.878 0 1.834-.144 2.697-.753l-.894-1.633a4.325 4.325 0 0 1-1.803.417c-.97 0-1.88-.593-2.28-1.457h6.317s.092-.657.092-1.025c0-2.465-1.91-4.45-4.283-4.45s-4.283 1.985-4.283 4.45c0 2.466 1.941 4.467 4.437 4.45zm2.065-5.38h-4.391c.37-.88 1.201-1.504 2.188-1.504 1.047 0 1.895.544 2.203 1.505zm5.546 5.188V.528h-1.94v12.184h1.94zM88.07 13c1.078 0 2.018-.32 2.48-.96l-.801-1.506c-.431.433-.955.64-1.68.64-.739 0-1.34-.768-1.34-1.536V6.164h2.404V4.21h-2.404V.608l-1.91 1.41V4.21h-1.033v1.953h1.048V9.75c0 2.257 1.587 3.25 3.236 3.25zm7.226-.096c.909 0 1.74-.288 2.434-.785v.577h1.926V4.21h-1.926v.576a4.149 4.149 0 0 0-2.434-.785c-2.373 0-4.284 1.986-4.284 4.451 0 2.466 1.91 4.45 4.284 4.45zm0-1.97c-1.31 0-2.389-1.104-2.389-2.465 0-1.36 1.048-2.45 2.358-2.45s2.388 1.105 2.388 2.466c0 1.361-1.048 2.45-2.357 2.45zm16.563 1.938c1.248 0 2.403-.4 3.358-1.073l-1.032-1.697c-.709.513-1.664.56-2.326.56-2.142 0-3.868-1.793-3.868-4.018 0-2.225 1.757-4.034 3.898-4.034.617 0 1.649.272 2.157.544l.94-1.921a5.8 5.8 0 0 0-3.127-.913c-3.344 0-6.04 2.802-6.04 6.276 0 3.474 2.696 6.276 6.04 6.276zm8.859.032c2.372 0 4.283-1.985 4.283-4.45 0-2.466-1.91-4.452-4.283-4.452s-4.268 1.986-4.268 4.451c0 2.466 1.895 4.45 4.268 4.45zm0-1.97c-1.31 0-2.358-1.088-2.358-2.449 0-1.36 1.064-2.465 2.373-2.465 1.31 0 2.373 1.088 2.373 2.45 0 1.36-1.079 2.465-2.388 2.465z" id="a"/></defs><g fill="none" fill-rule="evenodd"><mask id="c" fill="#fff"><use xlink:href="#a"/></mask><use fill="#3A86FF" fill-rule="nonzero" xlink:href="#a"/><path fill="url(#b)" mask="url(#c)" d="M-20.194-22.739h165.079v57.178H-20.194z"/></g></svg>
